X:1
T:Title
L:1/8
Q:1/4=100
M:4/4
K:F
V:1 treble nm="Church Organ, Staff"
V:1
 F2 F2- F/ z/ G A2 | d2 c2 A2 B2 | A2 G2- GAcB | AG G4 F2 | F2 F2- F/ z/ G A2 | d2 =B2 G2 c2 | %6
w: By~Rev.~R.~F.~Smith * * * *||||||
 e2 A2 e2 ed | c=B d4 c2 | c2 c2 G2 A2 | B2 B4 A2 | c2 c2 G2 A2 | B2 d4 c2 | c2 .f2 .f2 .f2 | %13
w: |||||||
 .f2 f6 | c2 c2 d2 G2- | GG F6 |] %16
w: |||

